x-pack/platform/packages/shared/kbn-inference-endpoint-ui-common/src/components/providers/assets/images/alibaba_cloud.svg

<svg width="32" height="32" viewBox="0 0 32 32" fill="none" xmlns="http://www.w3.org/2000/svg">
<path fill-rule="evenodd" clip-rule="evenodd" d="M12.6056 7H5.99165C3.24624 7 1 9.24624 1 11.9916V20.727C1 23.4724 3.24624 25.7187 5.99165 25.7187H12.6056L11.0082 23.4475L6.19131 21.9749C5.31777 21.7004 4.74373 20.8768 4.74373 19.9783V12.7404C4.71878 11.8669 5.29282 11.0183 6.19131 10.7437L11.0082 9.2712L12.6056 7ZM26.0082 7H19.3942L20.9915 9.2712L25.8334 10.7437C26.7319 11.0183 27.306 11.8669 27.281 12.7404V19.9783C27.281 20.8768 26.707 21.7004 25.8334 21.9749L21.0165 23.4475L19.3942 25.7187H26.0082C28.7785 25.7187 30.9998 23.4724 30.9998 20.727V11.9916C31.0248 9.24624 28.7785 7 26.0082 7ZM21.0165 15.1863H11.0083V17.4325H21.0165V15.1863Z" fill="#ED6B1E"/>
</svg>

<svg xmlns="http://www.w3.org/2000/svg" width="32" height="32" fill="none"><path fill="#ED6B1E" fill-rule="evenodd" d="M12.606 7H5.992A5.006 5.006 0 0 0 1 11.992v8.735a5.006 5.006 0 0 0 4.992 4.992h6.614l-1.598-2.271-4.817-1.473a2.09 2.09 0 0 1-1.447-1.997V12.74a2.05 2.05 0 0 1 1.447-1.996l4.817-1.473zm13.402 0h-6.614l1.598 2.271 4.841 1.473a2.05 2.05 0 0 1 1.448 1.996v7.238a2.09 2.09 0 0 1-1.448 1.997l-4.816 1.473-1.623 2.27h6.614A4.99 4.99 0 0 0 31 20.728v-8.735C31.025 9.246 28.779 7 26.008 7m-4.991 8.186H11.008v2.247h10.009z" clip-rule="evenodd"/></svg>
